wasmegg/rockets-tracker/src/badges/badge-26.svg

<svg xmlns="http://www.w3.org/2000/svg" xml:space="preserve" style="fill-rule:evenodd;clip-rule:evenodd;stroke-linejoin:round;stroke-miterlimit:2" viewBox="0 0 64 64"><path d="M.291-.037a.5.5 0 0 0-.176.001l-.019.001q.033-.067.073-.13A.8.8 0 0 0 .244-.33q.025-.075.04-.153A.5.5 0 0 0 .288-.64C.281-.689.256-.74.209-.762A.13.13 0 0 0 .128-.77a.12.12 0 0 0-.094.093l-.008.052c-.002.013.003.026.017.03.011.003.028-.004.03-.017q.003-.033.012-.065l.002-.005.002-.004.004-.006.002-.004.011-.011.004-.002.009-.005.008-.004.004-.002.017-.004h.019l.005.001.008.002.006.002.012.007.003.002.013.013.002.003.009.014.003.007.001.001.001.003.009.033.002.008.001.006.001.016-.002.075-.001.014-.001.007-.002.01-.014.067-.025.085-.015.042-.007.019-.002.005-.001.003-.005.01-.041.077-.047.081-.042.085a.03.03 0 0 0-.002.019.02.02 0 0 0 .017.017C.09.017.128.011.166.008L.224.006l.028.002.015.001.008.001h.003q.01.002.019-.003a.03.03 0 0 0 .011-.014C.311-.019.304-.035.291-.037" style="fill:#fff;fill-rule:nonzero" transform="matrix(56 0 0 56 13.027 53.28)"/><path d="M.313-.274a.4.4 0 0 0-.016-.07.14.14 0 0 0-.038-.066.1.1 0 0 0-.037-.019.1.1 0 0 0-.041-.002.2.2 0 0 0-.067.028l-.023.017.015-.084q.012-.046.027-.092l.02-.063.005-.016.003-.007.002-.004v-.001l.015-.029.005-.008.003-.003L.193-.7l.001-.001.002-.001a.024.024 0 0 0 .008-.033C.198-.746.182-.751.171-.744a.13.13 0 0 0-.044.053.4.4 0 0 0-.026.068l-.022.07q-.015.045-.025.092l-.016.092-.007.047-.005.015a.03.03 0 0 0 .004.021v.107q0 .035.007.068a.2.2 0 0 0 .026.059q.023.03.057.046c.021.01.044.018.068.015a.1.1 0 0 0 .059-.027.2.2 0 0 0 .059-.104.4.4 0 0 0 .007-.152m-.044.07-.001.021-.001.008v.001l-.005.026-.008.027-.005.013-.001.004-.002.005-.014.024-.004.006-.001.002-.008.009-.009.007-.001.002-.006.003-.005.003H.197L.185-.04l-.001.001H.178L.171-.04H.169L.155-.044.147-.047.142-.049.127-.057.121-.062.118-.064.105-.077.101-.083.094-.095.093-.098.09-.104Q.085-.118.083-.133L.082-.14.081-.143.08-.16.079-.193v-.113l.003-.003.006-.007.022-.022.012-.011.005-.004.006-.004.03-.018.004-.001.007-.003.016-.004h.014l.007.001.003.001.006.003.004.002.008.008.004.005.008.016.001.003.003.008.005.017.008.031.004.02.001.011h.001v.007z" style="fill:#fff;fill-rule:nonzero" transform="matrix(56 0 0 56 31.731 53.28)"/></svg>

<?xml version="1.0" encoding="UTF-8" standalone="no"?>
<!DOCTYPE svg PUBLIC "-//W3C//DTD SVG 1.1//EN" "http://www.w3.org/Graphics/SVG/1.1/DTD/svg11.dtd">
<svg width="100%" height="100%" viewBox="0 0 64 64" version="1.1" xmlns="http://www.w3.org/2000/svg" xmlns:xlink="http://www.w3.org/1999/xlink" xml:space="preserve" xmlns:serif="http://www.serif.com/" style="fill-rule:evenodd;clip-rule:evenodd;stroke-linejoin:round;stroke-miterlimit:2;">
    <g transform="matrix(1,0,0,1,-17.779,22.2681)">
        <g transform="matrix(56,0,0,56,30.8061,31.0123)">
            <path d="M0.291,-0.037C0.251,-0.043 0.211,-0.045 0.171,-0.042C0.153,-0.04 0.134,-0.038 0.115,-0.036C0.109,-0.036 0.103,-0.035 0.096,-0.035C0.118,-0.08 0.142,-0.123 0.169,-0.165C0.201,-0.216 0.225,-0.273 0.244,-0.33C0.26,-0.38 0.275,-0.431 0.284,-0.483C0.293,-0.535 0.296,-0.587 0.288,-0.64C0.281,-0.689 0.256,-0.74 0.209,-0.762C0.183,-0.774 0.155,-0.776 0.128,-0.77C0.102,-0.764 0.075,-0.749 0.059,-0.728C0.047,-0.713 0.039,-0.696 0.034,-0.677C0.03,-0.66 0.028,-0.642 0.026,-0.625C0.024,-0.612 0.029,-0.599 0.043,-0.595C0.054,-0.592 0.071,-0.599 0.073,-0.612C0.076,-0.634 0.078,-0.656 0.085,-0.677C0.086,-0.678 0.087,-0.681 0.087,-0.682C0.088,-0.683 0.089,-0.685 0.089,-0.686C0.09,-0.688 0.092,-0.69 0.093,-0.692C0.094,-0.694 0.094,-0.695 0.095,-0.696L0.106,-0.707C0.107,-0.707 0.108,-0.708 0.11,-0.709C0.113,-0.711 0.116,-0.713 0.119,-0.714C0.121,-0.716 0.124,-0.717 0.127,-0.718C0.128,-0.719 0.13,-0.719 0.131,-0.72C0.137,-0.722 0.142,-0.723 0.148,-0.724L0.152,-0.724C0.155,-0.725 0.158,-0.725 0.16,-0.724L0.167,-0.724C0.169,-0.724 0.171,-0.723 0.172,-0.723C0.175,-0.723 0.178,-0.722 0.18,-0.721C0.181,-0.721 0.185,-0.719 0.186,-0.719C0.19,-0.717 0.194,-0.714 0.198,-0.712C0.199,-0.711 0.2,-0.711 0.201,-0.71L0.214,-0.697C0.215,-0.696 0.216,-0.695 0.216,-0.694C0.22,-0.689 0.222,-0.685 0.225,-0.68C0.226,-0.678 0.227,-0.675 0.228,-0.673C0.229,-0.673 0.229,-0.672 0.229,-0.672C0.229,-0.671 0.23,-0.67 0.23,-0.669C0.234,-0.658 0.237,-0.647 0.239,-0.636C0.24,-0.633 0.24,-0.631 0.241,-0.628C0.241,-0.627 0.242,-0.623 0.242,-0.622C0.242,-0.616 0.243,-0.611 0.243,-0.606C0.244,-0.593 0.244,-0.581 0.244,-0.568C0.244,-0.556 0.243,-0.544 0.241,-0.531C0.241,-0.526 0.24,-0.522 0.24,-0.517C0.24,-0.515 0.239,-0.511 0.239,-0.51C0.238,-0.507 0.238,-0.504 0.237,-0.5C0.233,-0.478 0.228,-0.456 0.223,-0.433C0.215,-0.405 0.207,-0.376 0.198,-0.348C0.194,-0.334 0.189,-0.32 0.183,-0.306C0.181,-0.3 0.178,-0.293 0.176,-0.287C0.175,-0.285 0.174,-0.283 0.174,-0.282C0.173,-0.281 0.173,-0.28 0.173,-0.279C0.171,-0.276 0.17,-0.273 0.168,-0.269C0.157,-0.243 0.143,-0.216 0.127,-0.192C0.111,-0.165 0.095,-0.139 0.08,-0.111C0.065,-0.083 0.051,-0.055 0.038,-0.026C0.035,-0.02 0.034,-0.014 0.036,-0.007C0.038,0.001 0.044,0.008 0.053,0.01C0.09,0.017 0.128,0.011 0.166,0.008C0.185,0.006 0.205,0.006 0.224,0.006C0.233,0.007 0.243,0.007 0.252,0.008C0.257,0.008 0.262,0.008 0.267,0.009C0.27,0.009 0.272,0.009 0.275,0.01L0.278,0.01C0.285,0.011 0.291,0.011 0.297,0.007C0.302,0.004 0.306,-0.001 0.308,-0.007C0.311,-0.019 0.304,-0.035 0.291,-0.037Z" style="fill:white;fill-rule:nonzero;"/>
        </g>
        <g transform="matrix(56,0,0,56,49.5101,31.0123)">
            <path d="M0.313,-0.274C0.31,-0.297 0.304,-0.321 0.297,-0.344C0.289,-0.368 0.279,-0.393 0.259,-0.41C0.249,-0.419 0.236,-0.426 0.222,-0.429C0.208,-0.433 0.195,-0.433 0.181,-0.431C0.157,-0.428 0.134,-0.416 0.114,-0.403C0.106,-0.398 0.099,-0.392 0.091,-0.386C0.096,-0.414 0.1,-0.442 0.106,-0.47C0.113,-0.501 0.124,-0.531 0.133,-0.562C0.139,-0.583 0.146,-0.604 0.153,-0.625C0.154,-0.63 0.156,-0.635 0.158,-0.641C0.159,-0.643 0.16,-0.646 0.161,-0.648C0.162,-0.65 0.162,-0.651 0.163,-0.652L0.163,-0.653C0.167,-0.663 0.172,-0.673 0.178,-0.682C0.18,-0.685 0.181,-0.687 0.183,-0.69L0.186,-0.693C0.188,-0.696 0.191,-0.698 0.193,-0.7L0.194,-0.701C0.194,-0.701 0.195,-0.701 0.196,-0.702C0.207,-0.709 0.211,-0.723 0.204,-0.735C0.198,-0.746 0.182,-0.751 0.171,-0.744C0.151,-0.731 0.137,-0.712 0.127,-0.691C0.116,-0.669 0.108,-0.646 0.101,-0.623C0.093,-0.6 0.086,-0.576 0.079,-0.553C0.07,-0.523 0.06,-0.492 0.054,-0.461C0.049,-0.431 0.044,-0.4 0.038,-0.369C0.035,-0.354 0.033,-0.338 0.031,-0.322C0.029,-0.317 0.027,-0.312 0.026,-0.307C0.024,-0.299 0.026,-0.292 0.03,-0.286L0.03,-0.179C0.03,-0.156 0.032,-0.133 0.037,-0.111C0.042,-0.09 0.05,-0.069 0.063,-0.052C0.078,-0.032 0.097,-0.016 0.12,-0.006C0.141,0.004 0.164,0.012 0.188,0.009C0.211,0.006 0.23,-0.003 0.247,-0.018C0.278,-0.044 0.295,-0.085 0.306,-0.122C0.32,-0.172 0.321,-0.223 0.313,-0.274ZM0.269,-0.204C0.269,-0.197 0.268,-0.19 0.268,-0.183C0.268,-0.18 0.267,-0.178 0.267,-0.175L0.267,-0.174C0.266,-0.165 0.264,-0.157 0.262,-0.148C0.26,-0.139 0.257,-0.13 0.254,-0.121C0.253,-0.117 0.251,-0.113 0.249,-0.108C0.249,-0.107 0.248,-0.106 0.248,-0.104C0.247,-0.103 0.246,-0.101 0.246,-0.099C0.242,-0.091 0.237,-0.083 0.232,-0.075C0.231,-0.073 0.23,-0.071 0.228,-0.069C0.228,-0.069 0.227,-0.068 0.227,-0.067C0.224,-0.064 0.221,-0.061 0.219,-0.058C0.216,-0.055 0.213,-0.053 0.21,-0.051C0.21,-0.05 0.209,-0.05 0.209,-0.049L0.203,-0.046C0.201,-0.045 0.199,-0.044 0.198,-0.043L0.197,-0.043C0.193,-0.041 0.189,-0.04 0.185,-0.04C0.185,-0.039 0.184,-0.039 0.184,-0.039L0.178,-0.039C0.175,-0.039 0.173,-0.039 0.171,-0.04L0.169,-0.04C0.164,-0.041 0.159,-0.042 0.155,-0.044C0.152,-0.045 0.15,-0.046 0.147,-0.047C0.145,-0.048 0.143,-0.048 0.142,-0.049C0.137,-0.052 0.132,-0.054 0.127,-0.057C0.125,-0.059 0.123,-0.06 0.121,-0.062C0.12,-0.063 0.119,-0.064 0.118,-0.064L0.105,-0.077C0.105,-0.077 0.102,-0.081 0.101,-0.083C0.099,-0.087 0.096,-0.091 0.094,-0.095C0.094,-0.096 0.093,-0.097 0.093,-0.098C0.093,-0.098 0.091,-0.103 0.09,-0.104C0.087,-0.114 0.084,-0.123 0.083,-0.133C0.082,-0.136 0.082,-0.138 0.082,-0.14C0.081,-0.141 0.081,-0.142 0.081,-0.143C0.081,-0.148 0.08,-0.154 0.08,-0.16C0.079,-0.171 0.079,-0.182 0.079,-0.193L0.079,-0.306L0.082,-0.309C0.084,-0.312 0.086,-0.314 0.088,-0.316C0.095,-0.324 0.102,-0.331 0.11,-0.338C0.114,-0.342 0.118,-0.345 0.122,-0.349C0.123,-0.349 0.126,-0.352 0.127,-0.353C0.129,-0.354 0.131,-0.355 0.133,-0.357C0.143,-0.364 0.153,-0.37 0.163,-0.375C0.164,-0.375 0.165,-0.376 0.167,-0.376C0.169,-0.377 0.171,-0.378 0.174,-0.379C0.179,-0.381 0.184,-0.382 0.19,-0.383L0.204,-0.383C0.203,-0.383 0.209,-0.382 0.211,-0.382C0.212,-0.381 0.213,-0.381 0.214,-0.381C0.214,-0.381 0.219,-0.379 0.22,-0.378C0.221,-0.377 0.223,-0.376 0.224,-0.376L0.232,-0.368C0.232,-0.368 0.235,-0.364 0.236,-0.363C0.239,-0.358 0.241,-0.353 0.244,-0.347C0.244,-0.346 0.245,-0.345 0.245,-0.344C0.246,-0.342 0.247,-0.339 0.248,-0.336C0.25,-0.331 0.251,-0.325 0.253,-0.319C0.256,-0.309 0.258,-0.298 0.261,-0.288C0.262,-0.281 0.264,-0.274 0.265,-0.268C0.265,-0.264 0.266,-0.261 0.266,-0.257L0.267,-0.257L0.267,-0.25C0.269,-0.235 0.269,-0.219 0.269,-0.204Z" style="fill:white;fill-rule:nonzero;"/>
        </g>
    </g>
</svg>
